build/img/four_benefits/vectors/bpuddle.svg

<svg width="173" height="523" viewBox="0 0 173 523" fill="none" xmlns="http://www.w3.org/2000/svg">
<path d="M124.469 521.964C102.307 520.129 80.8526 513.259 61.7402 501.875C42.6278 490.492 26.3616 474.896 14.1804 456.275C5.4485 442.703 -1.10111 426.821 0.597195 410.785C4.06703 378.128 38.0491 359.046 67.883 345.425C97.7169 331.804 131.705 312.739 135.22 280.1C138.954 245.384 105.15 216.178 104.57 181.347C104.264 161.349 115.271 142.608 129.586 128.647C141.91 116.786 156.616 107.685 172.728 101.95C188.841 96.2147 205.99 93.9761 223.038 95.3829C239.323 96.8173 255.48 90.2473 271.125 85.4483C286.769 80.6493 301.697 71.8198 310.78 58.2163C316.456 49.7121 319.625 39.7168 325.49 31.3573C342.159 7.49602 374.951 2.84772 403.924 0.275397C439.477 125.132 524.735 231.924 567.451 354.495C423.349 413.789 279.874 533.625 124.469 521.964Z" fill="#F3F1DF"/>
</svg>

<svg width="173" height="523" fill="none" xmlns="http://www.w3.org/2000/svg"><path d="M124.469 521.964a146.147 146.147 0 0 1-62.729-20.089 146.279 146.279 0 0 1-47.56-45.6C5.448 442.703-1.1 426.821.597 410.785c3.47-32.657 37.452-51.739 67.286-65.36 29.834-13.621 63.822-32.686 67.337-65.325 3.734-34.716-30.07-63.922-30.65-98.753-.306-19.998 10.701-38.739 25.016-52.7a120.473 120.473 0 0 1 93.452-33.264c16.285 1.434 32.442-5.136 48.087-9.935 15.644-4.799 30.572-13.628 39.655-27.232 5.676-8.504 8.845-18.5 14.71-26.859C342.159 7.496 374.951 2.847 403.924.275c35.553 124.857 120.811 231.649 163.527 354.22-144.102 59.294-287.577 179.13-442.982 167.469Z" fill="#F3F1DF"/></svg>
